!!!COM: Gaspar van Weerbeke
!!!CDT: ~1450-~1517
!!!OPR: Missa Et trop penser
!!!OTL: Kyrie
!!!AGN: Mass
!!!SCT: Gas0202a
!!!SCA: Gas0202a
!!!voices: 4

**kern	**text	**kern	**text	**kern	**text	**kern	**text
*part4	*part4	*part3	*part3	*part2	*part2	*part1	*part1
*staff4	*staff4	*staff3	*staff3	*staff2	*staff2	*staff1	*staff1
*I"Bassus	*	*I"Tenor	*	*I"Altus	*	*I"Superius	*
*I'B	*	*I'T	*	*I'A	*	*I'S	*
*clefF4	*	*clefGv2	*	*clefGv2	*	*clefG2	*
*k[b-]	*	*k[b-]	*	*k[b-]	*	*k[b-]	*
*M3/2	*	*M3/2	*	*M3/2	*	*M3/2	*
*met(O)	*	*met(O)	*	*met(O)	*	*met(O)	*
=1	=1	=1	=1	=1	=1	=1	=1
*	*	*	*	*lig	*	*	*
4.GG	Ky-	2%3r	.	[1.G	Ky-	1g	Ky-
8AA	.	.	.	.	.	.	.
4BB-y	.	.	.	.	.	.	.
4C	.	.	.	.	.	.	.
4BB-y	-ri-	.	.	.	.	2g	-ri-
4C	.	.	.	.	.	.	.
=2	=2	=2	=2	=2	=2	=2	=2
1GG	-e	1.r	.	1.G]	.	2b-y	-e-
*	*	*	*	*	*	*	*edit
.	.	.	.	.	.	4.b-y	-lei-
.	.	.	.	.	.	8a	.
*	*edit	*	*	*	*	*	*
2C	e-	.	.	.	.	4g	.
.	.	.	.	.	.	8fL	.
.	.	.	.	.	.	8eJ	.
=3	=3	=3	=3	=3	=3	=3	=3
4BB-y	.	1.r	.	1B-y	.	2d	-son,
2GG	-lei-	.	.	.	.	.	.
.	.	.	.	.	.	4r	.
4BB-y	.	.	.	.	.	4.g	ky-
*	*	*	*	*Xlig	*	*	*
4C	.	.	.	4G	-ri-	.	.
.	.	.	.	.	.	8a	.
4BB-y	.	.	.	[4d	-e	[4b-y	-ri-
=4	=4	=4	=4	=4	=4	=4	=4
2GG	-son,	1.r	.	8dL]	.	4b-]	.
.	.	.	.	8cJ	.	.	.
.	.	.	.	4B-y	.	8aL	.
.	.	.	.	.	.	8gJ	.
4D	ky-	.	.	4.A	.	4.f	-e
8CL	.	.	.	.	.	.	.
8BB-yJ	.	.	.	8B-y	.	8g	.
2AA	-ri-	.	.	2c	.	2a	e-
!!LO:LB:g=original
=5	=5	=5	=5	=5	=5	=5	=5
*	*	*	*	*	*edit	*	*
4GG	-e	1.r	.	2d	e-	2b-y	-lei-
2G	e-	.	.	.	.	.	.
*	*	*	*	*	*	*lig	*
.	.	.	.	4B-y	.	2g	-son,
4E	.	.	.	2c	-lei-	.	.
2F	.	.	.	.	.	2a	.
.	.	.	.	4A	.	.	.
*	*	*	*	*	*	*Xlig	*
=6	=6	=6	=6	=6	=6	=6	=6
4.G	-lei-	1.r	.	2G	-son,	4r	.
.	.	.	.	.	.	4d	ky-
8F	.	.	.	.	.	.	.
2D	-son,	.	.	4A	ky-	2f	.
.	.	.	.	4B-y	.	.	.
4r	.	.	.	2c	-ri-	2e-i	-ri-
4C	ky-	.	.	.	.	.	.
=7	=7	=7	=7	=7	=7	=7	=7
4BB-y	-ri-	1.r	.	4d	-e	4d	-e
2C	-e	.	.	4.e-i	e-	2g	e-
.	.	.	.	8d	.	.	.
4D	.	.	.	2d	-lei-	4f	.
2E-i	e-	.	.	.	.	4g	-lei-
.	.	.	.	4c	.	4e-i	.
=8	=8	=8	=8	=8	=8	=8	=8
4.D	-lei-	1.r	.	2.d	-son,	2f	-son,
8E	.	.	.	.	.	.	.
4F	.	.	.	.	.	4r	.
4G	.	.	.	4B-y	.	4.b-y	ky-
2F	.	.	.	2c	.	.	.
.	.	.	.	.	.	8a	.
.	.	.	.	.	.	4a	-ri-
=9	=9	=9	=9	=9	=9	=9	=9
4C	.	1.r	.	4e-i	ky-	4g	-e
4D	.	.	.	4.d	-ri-	2f	e-
2BB-y	.	.	.	.	.	.	.
.	.	.	.	8c	.	.	.
.	.	.	.	2B-y	-e	4d	.
2F	-son,	.	.	.	.	2c	.
.	.	.	.	4A	.	.	.
!!LO:LB:g=original
=10	=10	=10	=10	=10	=10	=10	=10
4r	.	1.r	.	4G	e-	4B-y	.
2BB-y	ky-	.	.	8FL	.	2d	-lei-
.	.	.	.	8EJ	.	.	.
.	.	.	.	4D	.	.	.
4C	.	.	.	2G	-lei-	8cL	.
.	.	.	.	.	.	8B-yJ	.
2D	-ri-	.	.	.	.	2A	-son,
.	.	.	.	4F#i	.	.	.
=11	=11	=11	=11	=11	=11	=11	=11
*	*	*	*edit	*	*	*	*
2GG	-e	[1.G	Ky-	2G	-son,	4r	.
.	.	.	.	.	.	2g	ky-
4.GG	e-	.	.	4.B-y	ky-	.	.
.	.	.	.	.	.	8fL	.
8AA	.	.	.	8c	.	8eJ	.
4BB-y	.	.	.	4d	-ri-	4d	.
[4C	.	.	.	[4e-i	-e	[4c	.
=12	=12	=12	=12	=12	=12	=12	=12
8C]	.	1G]	.	8eL]	.	4c]	.
8D	.	.	.	8dJ	.	.	.
2E-i	.	.	.	2B-y	.	2g	.
4C	.	.	.	4c	.	2cc	-ri-
2G	-lei-	2B-y	-ri-	2d	.	.	.
.	.	.	.	.	.	4bni	.
=13	=13	=13	=13	=13	=13	=13	=13
1C	-son,	1G	-e	2c	e-	2cc	-e,
.	.	.	.	4.c	-lei-	2r	.
.	.	.	.	8d	.	.	.
2C	ky-	2A	.	2e-i	.	2cc	ky-
=14	=14	=14	=14	=14	=14	=14	=14
*	*	*lig	*	*	*	*	*
2BB-y	-ri-	1.B-y	.	2d	-son,	4.dd	-ri-
.	.	.	.	.	.	8cc	.
4.BB-y	-e	.	.	4r	.	4b-y	.
.	.	.	.	2d	ky-	8aL	.
8C	.	.	.	.	.	8gJ	.
4D	.	.	.	.	.	4f	.
4E-i	.	.	.	4G	-ri-	4g	.
=15	=15	=15	=15	=15	=15	=15	=15
4D	.	1d	e-	4A	-e	4f	-e
4.G	e-	.	.	4G	.	4.b-y	e-
.	.	.	.	2g	e-	.	.
8F	.	.	.	.	.	8a	.
4G	.	.	.	.	.	4b-y	.
4A	.	[2c	.	4e	.	4cc	.
[4F	.	.	.	[4f	.	[4a	.
=16	=16	=16	=16	=16	=16	=16	=16
8F]	.	2c]	.	8f]	.	8a]	.
8E	.	.	.	8g	.	8g	.
4F	.	.	.	4f	.	4a	.
4G	.	1B-y	.	4d	.	4b-y	.
4.E-X	.	.	.	4.e-X	-lei-	4.g	.
8D	.	.	.	8f	.	8f	.
4E-i	.	.	.	4e-i	.	4g	.
*	*	*Xlig	*	*	*	*	*
=17	=17	=17	=17	=17	=17	=17	=17
2F	.	2A	.	1c	-son,	4a	.
.	.	.	.	.	.	4f	.
1C	-lei-	1G	-lei-	.	.	8gL	-lei-
.	.	.	.	.	.	8f	.
.	.	.	.	.	.	8e	.
.	.	.	.	.	.	8dJ	.
.	.	.	.	2r	.	2e	.
=18	=18	=18	=18	=18	=18	=18	=18
2D	-son,	2F	-son,	4.A	ky-	2f	-son,
.	.	.	.	8B-y	.	.	.
4r	.	2r	.	4c	-ri-	2r	.
4C	ky-	.	.	8B-yL	.	.	.
.	.	.	.	8AJ	.	.	.
2E-i	.	2r	.	4G	-e	2r	.
.	.	.	.	[4c	e-	.	.
=19	=19	=19	=19	=19	=19	=19	=19
*	*	*	*Xedit	*	*	*	*
4C	.	4G	ky-	4c]	.	1.r	.
2BB-y	.	2B-y	.	2d	.	.	.
4C	.	2G	-ri-	4e	.	.	.
2AA	-ri-	.	.	8fL	.	.	.
.	.	.	.	8e	.	.	.
.	.	4F#i	.	8d	.	.	.
.	.	.	.	8cJ	.	.	.
=20	=20	=20	=20	=20	=20	=20	=20
2GG	-e,	1G	-e	4B-y	.	4g	ky-
.	.	.	.	2d	-lei-	2b-y	.
4r	.	.	.	.	.	.	.
4GG	ky-	.	.	4B-y	.	2g	-ri-
2D	.	2A	.	2A	-son,	.	.
.	.	.	.	.	.	4f#i	.
=21	=21	=21	=21	=21	=21	=21	=21
1GG	-ri-	2B-y	.	4G	ky-	4g	-e
.	.	.	.	2B-y	.	2dd	e-
*	*	*	*edit	*	*	*	*
.	.	1d	e-	.	.	.	.
.	.	.	.	2G	-ri-	4b-y	.
2D	-e,	.	.	.	.	2a	.
.	.	.	.	4F#i	.	.	.
=22	=22	=22	=22	=22	=22	=22	=22
*	*	*	*Xedit	*	*	*	*
4r	.	4.d	-lei-	2G	-e,	4g	.
4G	ky-	.	.	.	.	4b-y	.
.	.	8B-y	.	.	.	.	.
4A	.	4c	.	2r	.	4a	.
4D	.	2d	.	.	.	2b-y	.
2G	-ri-	.	.	4.B-y	ky-	.	.
.	.	4B-y	.	.	.	8aL	.
.	.	.	.	8c	.	8gJ	.
=23	=23	=23	=23	=23	=23	=23	=23
4.D	-e	4.A	.	8dL	-ri-	4f	.
.	.	.	.	8eJ	.	.	.
.	.	.	.	4.f	-e	4.a	.
8C	.	8D	.	.	.	.	.
4AA	.	4F	.	.	.	.	.
.	.	.	.	8e	.	8d	.
*	*	*	*	*	*	*	*Xedit
4BB-y	.	4G	.	4d	.	2g	-lei-
4C	.	2A	.	4c	.	.	.
4D	.	.	.	4A	.	4f#i	.
=24	=24	=24	=24	=24	=24	=24	=24
4.GG	e-	[1.G	-son.	2.B-y	e-	[1.g	-son.
8AA	.	.	.	.	.	.	.
4BB-y	.	.	.	.	.	.	.
*	*Xedit	*	*	*	*Xedit	*	*
4.C	-lei-	.	.	4.E-i	-lei-	.	.
8BB-yL	.	.	.	8DL	.	.	.
8C	.	.	.	8E-i	.	.	.
8BB-yJ	.	.	.	8DJ	.	.	.
=25	=25	=25	=25	=25	=25	=25	=25
0GG	-son.	0G]	.	0D	-son.	0g]	.
=26||	=26||	=26||	=26||	=26||	=26||	=26||	=26||
*M2/2	*	*M2/2	*	*M2/2	*	*M2/2	*
*met(C|)	*	*met(C|)	*	*met(C|)	*	*met(C|)	*
!LO:TX:b:t=B	!	!	!	!LO:TX:b:t=A	!	!LO:TX:b:t=S	!
1r	.	1r	.	2.G	Chri-	1d	Chri-
.	.	.	.	[4B-y	.	.	.
=27	=27	=27	=27	=27	=27	=27	=27
1r	.	1r	.	4B-]	.	2d	-ste
.	.	.	.	8AL	.	.	.
.	.	.	.	8GJ	.	.	.
.	.	.	.	2F	-ste	[2A	.
=28	=28	=28	=28	=28	=28	=28	=28
*	*	*	*	*	*edit	*	*
1r	.	1r	.	4D	e-	2A]	.
.	.	.	.	2F	.	.	.
.	.	.	.	.	.	2B-y	.
.	.	.	.	4G	.	.	.
=29	=29	=29	=29	=29	=29	=29	=29
*	*	*	*	*	*	*lig	*
1r	.	1r	.	4A	-lei-	1c	.
.	.	.	.	8GL	.	.	.
.	.	.	.	8FJ	.	.	.
.	.	.	.	2E	-son,	.	.
=30	=30	=30	=30	=30	=30	=30	=30
*	*	*	*	*	*	*	*edit
4.D	Chri-	1r	.	1r	.	1d	e-
8E	.	.	.	.	.	.	.
4F	.	.	.	.	.	.	.
[4G	-ste	.	.	.	.	.	.
*	*	*	*	*	*	*Xlig	*
=31	=31	=31	=31	=31	=31	=31	=31
*	*	*	*	*	*	*lig	*
4G]	.	1r	.	1r	.	2c	.
4A	.	.	.	.	.	.	.
4B-y	.	.	.	.	.	2B-y	.
*	*edit	*	*	*	*	*	*
[4G	e-	.	.	.	.	.	.
*	*	*	*	*	*	*Xlig	*
=32	=32	=32	=32	=32	=32	=32	=32
4G]	.	1r	.	1r	.	1A	-lei-
8F#iL	.	.	.	.	.	.	.
8EJ	.	.	.	.	.	.	.
2F#i	-lei-	.	.	.	.	.	.
=33	=33	=33	=33	=33	=33	=33	=33
1G	-son,	1r	.	1r	.	1G	-son,
=34	=34	=34	=34	=34	=34	=34	=34
2G	Chri-	1r	.	1d	Chri-	1r	.
2D	-ste	.	.	.	.	.	.
=35	=35	=35	=35	=35	=35	=35	=35
2r	.	1r	.	2d	-ste	1r	.
2D	e-	.	.	2A	.	.	.
=36	=36	=36	=36	=36	=36	=36	=36
2E	-lei-	1r	.	2r	.	1r	.
2F	.	.	.	2A	e-	.	.
=37	=37	=37	=37	=37	=37	=37	=37
2G	-son,	1r	.	2B-y	-lei-	1r	.
4E	e-	.	.	2c	.	.	.
4F	.	.	.	.	.	.	.
=38	=38	=38	=38	=38	=38	=38	=38
4D	.	1r	.	2d	-son,	1r	.
4.G	-lei-	.	.	.	.	.	.
.	.	.	.	2d	e-	.	.
8A	.	.	.	.	.	.	.
4B-y	.	.	.	.	.	.	.
=39	=39	=39	=39	=39	=39	=39	=39
8AL	.	1r	.	2c	.	1r	.
8G	.	.	.	.	.	.	.
8F	.	.	.	.	.	.	.
8EJ	.	.	.	.	.	.	.
2D	-son,	.	.	4B-y	.	.	.
.	.	.	.	[4A	-lei-	.	.
=40	=40	=40	=40	=40	=40	=40	=40
2C	e-	1r	.	8A]	.	2r	.
.	.	.	.	8GL	.	.	.
.	.	.	.	8F	.	.	.
.	.	.	.	8EJ	.	.	.
2BB-y	.	.	.	2D	-son,	4r	.
.	.	.	.	.	.	[4g	Chri-
=41	=41	=41	=41	=41	=41	=41	=41
1AA	-lei-	1r	.	1r	.	4g]	.
.	.	.	.	.	.	8f#iL	.
.	.	.	.	.	.	8eJ	.
.	.	.	.	.	.	2f#i	.
=42	=42	=42	=42	=42	=42	=42	=42
*	*	*	*	*	*	*lig	*
1GG	-son,	1r	.	2r	.	2g	.
.	.	.	.	4r	.	2b-y	.
.	.	.	.	[4G	Chri-	.	.
=43	=43	=43	=43	=43	=43	=43	=43
2r	.	1r	.	4G]	.	1a	-ste
.	.	.	.	8F#iL	.	.	.
.	.	.	.	8EJ	.	.	.
2D	Chri-	.	.	2F#i	.	.	.
*	*	*	*	*	*	*Xlig	*
=44	=44	=44	=44	=44	=44	=44	=44
*	*	*	*	*lig	*	*	*
4GG	.	1r	.	2G	-ste	2r	.
4C	.	.	.	.	.	.	.
4BB-y	.	.	.	2B-y	.	4r	.
4GG	.	.	.	.	.	[4g	e-
=45	=45	=45	=45	=45	=45	=45	=45
2D	-ste,	1r	.	1A	.	4g]	.
.	.	.	.	.	.	8fL	.
.	.	.	.	.	.	8eJ	.
2r	.	.	.	.	.	8fL	.
.	.	.	.	.	.	8e	.
.	.	.	.	.	.	8d	.
.	.	.	.	.	.	8cJ	.
*	*	*	*	*Xlig	*	*	*
=46	=46	=46	=46	=46	=46	=46	=46
1r	.	1r	.	4.G	e-	4.B-y	.
.	.	.	.	8F	.	8c	.
.	.	.	.	8E-iL	.	4d	.
.	.	.	.	8DJ	.	.	.
.	.	.	.	[4C	.	[4e-X	-lei-
=47	=47	=47	=47	=47	=47	=47	=47
2r	.	1r	.	4C]	.	8e-]	.
.	.	.	.	.	.	8dL	.
.	.	.	.	2G	-lei-	8c	.
.	.	.	.	.	.	8B-yJ	.
2D	Chri-	.	.	.	.	2A	-son,
.	.	.	.	4F#i	.	.	.
=48	=48	=48	=48	=48	=48	=48	=48
4GG	.	1r	.	2G	-son,	2r	.
2C	.	.	.	.	.	.	.
.	.	.	.	2r	.	2d	Chri-
4BB-y	.	.	.	.	.	.	.
=49	=49	=49	=49	=49	=49	=49	=49
4C	.	1r	.	1r	.	4G	.
4E-i	.	.	.	.	.	2c	.
4D	.	.	.	.	.	.	.
8CL	.	.	.	.	.	4d	.
8BB-yJ	.	.	.	.	.	.	.
=50	=50	=50	=50	=50	=50	=50	=50
2AA	.	1r	.	4.c	Chri-	4.e	.
.	.	.	.	8d	.	8f	.
2GG	-ste	.	.	4e-i	.	2g	-ste,
.	.	.	.	[4d	.	.	.
=51	=51	=51	=51	=51	=51	=51	=51
2G	e-	1r	.	4d]	.	1r	.
.	.	.	.	8cL	.	.	.
.	.	.	.	8B-yJ	.	.	.
4F	.	.	.	4A	.	.	.
[4E-X	.	.	.	[4c	.	.	.
=52	=52	=52	=52	=52	=52	=52	=52
4E-]	.	1r	.	4c]	.	4r	.
4D	.	.	.	4B-y	.	2b-y	Chri-
2C	-lei-	.	.	2e-i	-ste	.	.
.	.	.	.	.	.	4a	.
=53	=53	=53	=53	=53	=53	=53	=53
2BB-y	-son,	1r	.	2.d	e-	2.b-y	-ste
2r	.	.	.	.	.	.	.
.	.	.	.	8cL	.	8aL	.
.	.	.	.	8B-yJ	.	8gJ	.
=54	=54	=54	=54	=54	=54	=54	=54
1r	.	1r	.	4A	.	4f	.
.	.	.	.	4B-y	.	4.g	e-
.	.	.	.	4A	.	.	.
.	.	.	.	.	.	8f	.
.	.	.	.	[4c	.	[4a	.
=55	=55	=55	=55	=55	=55	=55	=55
1r	.	1r	.	8c]	.	8a]	.
.	.	.	.	8B-yL	.	8gL	.
.	.	.	.	8A	.	8f	.
.	.	.	.	8GJ	.	8eJ	.
.	.	.	.	4F	.	4d	.
.	.	.	.	[4G	.	[4e	.
=56	=56	=56	=56	=56	=56	=56	=56
2r	.	1r	.	8G]	.	8e]	.
.	.	.	.	8F	.	8d	.
.	.	.	.	4B-y	.	2g	-lei-
2D	Chri-	.	.	2A	-lei-	.	.
.	.	.	.	.	.	4f#i	.
=57	=57	=57	=57	=57	=57	=57	=57
4BB-y	.	1r	.	2G	-son,	1g	-son,
2C	.	.	.	.	.	.	.
.	.	.	.	2r	.	.	.
8BB-yL	.	.	.	.	.	.	.
8AAJ	.	.	.	.	.	.	.
=58	=58	=58	=58	=58	=58	=58	=58
4GG	-ste	1r	.	2G	Chri-	1r	.
2C	e-	.	.	.	.	.	.
.	.	.	.	4E	.	.	.
[4D	.	.	.	[4F	.	.	.
=59	=59	=59	=59	=59	=59	=59	=59
8D]	.	1r	.	4F]	.	2r	.
8AA	.	.	.	.	.	.	.
4BBni	.	.	.	8EL	.	.	.
.	.	.	.	8DJ	.	.	.
4.C	.	.	.	4C	-ste	2g	Chri-
.	.	.	.	[4c	e-	.	.
8D	.	.	.	.	.	.	.
=60	=60	=60	=60	=60	=60	=60	=60
4E	.	1r	.	4c]	.	4e	.
4D	.	.	.	4.d	.	2f	.
4F	.	.	.	.	.	.	.
.	.	.	.	8A	.	.	.
4G	.	.	.	4Bni	.	8eL	.
.	.	.	.	.	.	8dJ	.
=61	=61	=61	=61	=61	=61	=61	=61
4A	.	1r	.	2c	-lei-	4c	-ste
4B-y	.	.	.	.	.	2cc	e-
4c	.	.	.	4e	.	.	.
4F	.	.	.	4f	.	[4dd	-lei-
=62	=62	=62	=62	=62	=62	=62	=62
2G	-lei-	1r	.	2d	-son,	8dd]	.
.	.	.	.	.	.	8a	.
.	.	.	.	.	.	4bni	.
2C	-son,	.	.	4r	.	2cc	-son,
.	.	.	.	[4c	Chri-	.	.
=63	=63	=63	=63	=63	=63	=63	=63
4.F	Chri-	1r	.	4c]	.	2cc	Chri-
.	.	.	.	2f	.	.	.
8G	.	.	.	.	.	.	.
4A	.	.	.	.	.	4a	.
4G	.	.	.	4d	.	4b-y	.
=64	=64	=64	=64	=64	=64	=64	=64
4E-i	.	1r	.	4e-i	-ste	4g	.
2F	-ste	.	.	4c	.	2a	-ste
.	.	.	.	2d	.	.	.
4D	e-	.	.	.	.	4f	e-
=65	=65	=65	=65	=65	=65	=65	=65
4E-i	.	1r	.	4B-y	e-	4g	.
4C	.	.	.	4c	.	4e	.
2D	.	.	.	4A	.	2f	.
.	.	.	.	[4B-y	.	.	.
=66	=66	=66	=66	=66	=66	=66	=66
4BB-y	.	1r	.	4B-]	.	4d	.
4C	.	.	.	4G	.	4e	.
4AA	.	.	.	8AL	.	4c	.
.	.	.	.	8G	.	.	.
[4BB-y	-lei-	.	.	8F	.	[4d	-lei-
.	.	.	.	8EJ	.	.	.
=67	=67	=67	=67	=67	=67	=67	=67
4BB-]	.	1r	.	4D	.	4d]	.
4GG	.	.	.	2G	-lei-	8cL	.
.	.	.	.	.	.	8B-yJ	.
2D	-son,	.	.	.	.	2A	-son,
.	.	.	.	4F#i	.	.	.
=68	=68	=68	=68	=68	=68	=68	=68
4r	.	1r	.	2G	-son,	4r	.
4G	e-	.	.	.	.	4g	e-
4F	.	.	.	2r	.	4a	.
[4D	-lei-	.	.	.	.	[4b-y	-lei-
=69	=69	=69	=69	=69	=69	=69	=69
4D]	.	1r	.	1r	.	4b-]	.
8CL	.	.	.	.	.	8aL	.
8BB-yJ	.	.	.	.	.	8gJ	.
4AA	.	.	.	.	.	4a	.
4GG	-son,	.	.	.	.	4b-y	.
=70	=70	=70	=70	=70	=70	=70	=70
4r	.	1r	.	4G	e-	2g	-son,
4G	e-	.	.	4B-y	.	.	.
4A	.	.	.	4c	.	2r	.
[4B-y	-lei-	.	.	[4d	-lei-	.	.
=71	=71	=71	=71	=71	=71	=71	=71
4B-]	.	1r	.	4d]	.	1r	.
8AL	.	.	.	8cL	.	.	.
8GJ	.	.	.	8B-yJ	.	.	.
4A	.	.	.	4A	.	.	.
4B-y	.	.	.	4G	-son,	.	.
=72	=72	=72	=72	=72	=72	=72	=72
2G	-son,	1r	.	4r	.	4g	e-
.	.	.	.	4G	e-	4b-y	.
2r	.	.	.	4A	.	4cc	.
.	.	.	.	[4B-y	-lei-	[4dd	-lei-
=73	=73	=73	=73	=73	=73	=73	=73
1r	.	1r	.	4B-]	.	4dd]	.
.	.	.	.	8AL	.	8ccL	.
.	.	.	.	8GJ	.	8b-yJ	.
.	.	.	.	4A	.	4a	.
.	.	.	.	4B-y	.	4g	-son,
=74	=74	=74	=74	=74	=74	=74	=74
2B-y	Chri-	1r	.	2G	-son,	1r	.
4G	.	.	.	4B-y	Chri-	.	.
[4A	-ste	.	.	[4c	.	.	.
=75	=75	=75	=75	=75	=75	=75	=75
8AL]	.	1r	.	4c]	.	1r	.
8G	.	.	.	.	.	.	.
8F	.	.	.	2d	-ste	.	.
8EJ	.	.	.	.	.	.	.
4D	e-	.	.	.	.	.	.
[4G	-lei-	.	.	4B-y	e-	.	.
=76	=76	=76	=76	=76	=76	=76	=76
4G]	.	1r	.	2A	-lei-	2r	.
4F#i	.	.	.	.	.	.	.
2G	-son,	.	.	4G	-son,	2b-y	Chri-
.	.	.	.	[4e-X	Chri-	.	.
=77	=77	=77	=77	=77	=77	=77	=77
4C	e-	1r	.	4e-]	.	4g	.
2F	.	.	.	4c	.	4.a	-ste
.	.	.	.	4.d	-ste	.	.
.	.	.	.	.	.	8gL	.
4D	.	.	.	.	.	8f	.
.	.	.	.	8c	.	8eJ	.
=78	=78	=78	=78	=78	=78	=78	=78
4G	.	1r	.	8B-yL	.	4d	e-
.	.	.	.	8AJ	.	.	.
*	*	*	*	*	*	*	*Xedit
4E	.	.	.	4G	e-	2g	-lei-
*	*Xedit	*	*	*	*Xedit	*	*
2D	-lei-	.	.	2A	-lei-	.	.
.	.	.	.	.	.	4f#i	.
=79	=79	=79	=79	=79	=79	=79	=79
0GG	-son.	0r	.	0G	-son.	0g	-son.
=80||	=80||	=80||	=80||	=80||	=80||	=80||	=80||
*M3/2	*	*M3/2	*	*M3/2	*	*M3/2	*
*met(O)	*	*met(O)	*	*met(O)	*	*met(O)	*
!LO:TX:b:t=B	!	!LO:TX:b:t=T	!	!LO:TX:b:t=A	!	!LO:TX:b:t=S	!
[1.D	Ky-	[1.d	Ky-	2.A	Ky-	1.f	Ky-
.	.	.	.	2B-y	-ri-	.	.
.	.	.	.	8AL	.	.	.
.	.	.	.	8GJ	.	.	.
=81	=81	=81	=81	=81	=81	=81	=81
2D_	.	1.d]	.	4.F	.	1a	.
.	.	.	.	8G	.	.	.
2D]	.	.	.	2A	.	.	.
2G	-ri-	.	.	2G	-e,	2b-y	-ri-
=82	=82	=82	=82	=82	=82	=82	=82
1F	-e	2.A	-ri-	4r	.	2.cc	-e
*	*	*	*	*	*edit	*	*
.	.	.	.	2c	ky-	.	.
.	.	4B-y	.	4d	.	8b-yL	.
.	.	.	.	.	.	8aJ	.
*	*edit	*	*	*	*	*	*
2E	e-	2c	.	2e	-ri-	2g	.
=83	=83	=83	=83	=83	=83	=83	=83
*	*	*	*	*	*	*	*edit
1D	-lei-	1.d	-e	2.A	-e	4.f	e-
.	.	.	.	.	.	8g	.
.	.	.	.	.	.	4a	.
.	.	.	.	2d	e-	4.b-y	.
2GG	-son,	.	.	.	.	.	.
.	.	.	.	.	.	8a	.
.	.	.	.	8cL	.	4b-y	.
.	.	.	.	8B-yJ	.	.	.
=84	=84	=84	=84	=84	=84	=84	=84
*	*	*lig	*	*	*	*	*
*	*	*	*edit	*	*	*	*
1F	ky-	1c	e-	1A	.	4cc	.
.	.	.	.	.	.	4.a	.
.	.	.	.	.	.	8gL	.
.	.	.	.	.	.	8f	.
.	.	.	.	.	.	8eJ	.
2G	-ri	[2B-y	-lei-	4B-y	.	4d	.
.	.	.	.	4G	.	[4g	.
=85	=85	=85	=85	=85	=85	=85	=85
4GG	e	2B-]	.	2d	.	8g]	.
.	.	.	.	.	.	8f	.
4.BB-y	.	.	.	.	.	4g	.
.	.	1A	.	4c	-lei-	4a	.
8C	.	.	.	.	.	.	.
4.D	.	.	.	4A	.	4f#i	.
.	.	.	.	2d	-son,	4.f#i	-lei-
8C	.	.	.	.	.	.	.
4D	.	.	.	.	.	.	.
.	.	.	.	.	.	8e	.
*	*	*Xlig	*	*	*	*	*
=86	=86	=86	=86	=86	=86	=86	=86
2.E-i	e-	1.G	-son,	4B-y	ky-	1g	-son,
.	.	.	.	2c	.	.	.
4D	.	.	.	2B-y	-ri-	.	.
2C	.	.	.	.	.	2r	.
.	.	.	.	4A	.	.	.
=87	=87	=87	=87	=87	=87	=87	=87
*lig	*	*	*	*	*	*	*
1.BB-y	-lei-	2r	.	4.B-y	-e	1dd	ky-
.	.	.	.	8c	.	.	.
.	.	2r	.	8dL	.	.	.
.	.	.	.	8eJ	.	.	.
.	.	.	.	2f	.	.	.
.	.	[2d	ky-	.	.	2dd	-ri-
.	.	.	.	4B-y	e-	.	.
=88	=88	=88	=88	=88	=88	=88	=88
1D	-son,	2d]	.	2.f	-lei-	2.a	-e
.	.	2d	-ri-	.	.	.	.
.	.	.	.	4d	.	4b-y	.
*	*	*lig	*	*	*	*	*
*Xlig	*	*	*	*	*	*	*
2r	.	2A	-e	2e	.	2cc	.
*	*	*Xlig	*	*	*	*	*
=89	=89	=89	=89	=89	=89	=89	=89
2D	ky-	4r	.	2d	.	2.dd	e-
.	.	4A	e-	.	.	.	.
4G	.	4B-y	.	2r	.	.	.
4D	.	2d	.	.	.	8ccL	.
.	.	.	.	.	.	8b-yJ	.
2E-i	-ri-	.	.	2G	.	8ccL	.
.	.	.	.	.	.	8b-y	.
.	.	4c	.	.	.	8a	.
.	.	.	.	.	.	8gJ	.
=90	=90	=90	=90	=90	=90	=90	=90
4.D	-e	2d	.	2A	-son,	4f	.
.	.	.	.	.	.	2a	.
8E	.	.	.	.	.	.	.
4F	.	4c	.	2r	.	.	.
4G	e-	4B-y	.	.	.	2g	-lei-
2D	-lei-	2A	-lei-	2r	.	.	.
.	.	.	.	.	.	4f#i	.
=91	=91	=91	=91	=91	=91	=91	=91
2GG	-son,	2G	-son,	4G	ky-	1g	-son,
.	.	.	.	2B-y	.	.	.
4r	.	2r	.	.	.	.	.
4GG	ky-	.	.	2G	-ri-	.	.
2BB-y	-ri-	2r	.	.	.	2r	.
.	.	.	.	4F	.	.	.
=92	=92	=92	=92	=92	=92	=92	=92
1GG	-e,	2r	.	4.G	-e	4g	ky-
.	.	.	.	.	.	2b-y	.
.	.	.	.	8A	.	.	.
.	.	4r	.	4.B-y	.	.	.
.	.	4G	ky-	.	.	2g	-ri-
.	.	.	.	8c	.	.	.
4r	.	2B-y	.	2d	.	.	.
4D	ky-	.	.	.	.	4f	.
=93	=93	=93	=93	=93	=93	=93	=93
4.E-i	-ri-	2G	-ri-	4.g	e-	4g	-e
.	.	.	.	.	.	4b-y	.
8D	.	.	.	8f	.	.	.
4C	.	4A	.	4e-i	.	4cc	.
4.BB-y	-e	4B-y	.	4d	.	4.dd	.
.	.	2d	-e	4f	.	.	.
8CL	.	.	.	.	.	8cc	.
8D	.	.	.	8FL	.	4b-y	.
8E-iJ	.	.	.	8GJ	.	.	.
=94	=94	=94	=94	=94	=94	=94	=94
4F	.	2c	e-	8AL	.	4a	.
.	.	.	.	8B-yJ	.	.	.
4C	e-	.	.	2c	.	2g	e-
2D	-lei-	4A	.	.	.	.	.
.	.	4F	.	4B-y	.	2f	-lei-
2C	.	2G	-lei-	2c	-lei-	.	.
.	.	.	.	.	.	4e	.
=95	=95	=95	=95	=95	=95	=95	=95
2D	-son,	2F	-son,	4A	-son,	2f	-son,
.	.	.	.	4F	ky-	.	.
4BB-y	ky-	2r	.	2B-y	-ri-	2r	.
2E-i	.	.	.	.	.	.	.
.	.	2r	.	4G	-e	2r	.
4C	-ri-	.	.	[4c	e-	.	.
=96	=96	=96	=96	=96	=96	=96	=96
4.F	-e-	1.r	.	8c]	.	1.r	.
.	.	.	.	8B-yL	.	.	.
.	.	.	.	8A	.	.	.
8E-i	.	.	.	8GJ	.	.	.
8DL	.	.	.	4F	.	.	.
8CJ	.	.	.	.	.	.	.
4BB-y	.	.	.	2G	-lei-	.	.
2AA	-lei-	.	.	.	.	.	.
.	.	.	.	4F#i	.	.	.
=97	=97	=97	=97	=97	=97	=97	=97
1.GG	-son,	2r	.	2.G	-son,	4g	Ky-
.	.	.	.	.	.	4.b-y	.
.	.	4r	.	.	.	.	.
.	.	.	.	.	.	8a	.
.	.	4G	ky-	4.B-y	ky-	4.g	-ri-
.	.	2B-y	.	.	.	.	.
.	.	.	.	8c	.	8aL	.
.	.	.	.	[4d	-ri-	8b-y	.
.	.	.	.	.	.	8ccJ	.
=98	=98	=98	=98	=98	=98	=98	=98
4r	.	4.G	-ri-	8d]	.	4.dd	-e-
.	.	.	.	8cL	.	.	.
2G	ky-	.	.	8B-y	.	.	.
.	.	8A	.	8AJ	.	8cc	.
.	.	8B-yL	.	4G	-e	4b-y	.
.	.	8cJ	.	.	.	.	.
4F	-ri-	2d	-e	4A	.	4a	.
2E-i	-e	.	.	4B-y	.	4g	.
.	.	4c	.	4G	.	4e	.
=99	=99	=99	=99	=99	=99	=99	=99
4.D	e-	2.d	e-	2A	.	4f	.
*	*	*	*	*	*	*lig	*
*	*	*	*	*	*	*	*Xedit
.	.	.	.	.	.	2a	-lei-
8E	.	.	.	.	.	.	.
4F	.	.	.	4D	.	.	.
4G	.	4B-y	.	2.d	e-	2g	.
*	*Xedit	*	*Xedit	*	*	*	*
2D	-lei-	2A	-lei-	.	.	.	.
.	.	.	.	.	.	4f#i	.
*	*	*	*	*	*	*Xlig	*
=100	=100	=100	=100	=100	=100	=100	=100
*	*	*	*	*	*Xedit	*	*
[1.GGl	-son.	[1.Gl	-son.	4.B-y	-lei-	[1.gl	-son.
.	.	.	.	8G	.	.	.
.	.	.	.	4.B-y	.	.	.
.	.	.	.	8c	.	.	.
.	.	.	.	4e-i	.	.	.
.	.	.	.	4d	.	.	.
=101	=101	=101	=101	=101	=101	=101	=101
0GG]	.	0G]	.	0dl	-son.	0g]	.
==	==	==	==	==	==	==	==
*-	*-	*-	*-	*-	*-	*-	*-
!!!system-decoration: [*]
!!!YEM: ©2016 American Institute of Musicology
!!!Xfilter: gasparize
!!!RDF**kern: j = editorial accidental, optional, paren up
!!!RDF**kern: i = editorial accidental
!!!RDF**kern: l = terminal long
!!!PTL: Gaspar van Weerbeke: Collected Works. V. Settings of Liturgical Texts, Songs, and Instrumental Works
!!!PPR: American Institute of Musicology
!!!PC#: Corpus Mensurabilis Musicae 106/V
!!!PDT: {YEAR}
!!!PED: Kolb, Paul
!!!PED: Pavanello, Agnese
!!!YEC: Copyright {YEAR}, Kolb, Paul
!!!YEC: Copyright {YEAR}, Pavanello, Agnese
!!!EED: Zybina, Karina
!!!EED: Mair-Gruber, Roland
!!!EEV: 2021/09/27
